/* XPM */
static char *result[] = {
/* columns rows colors chars-per-pixel */
"40 40 56 1 ",
"  c #C0D470",
". c #C0D46F",
"X c #BFD36F",
"o c #BED36E",
"O c #BFD36E",
"+ c #C3D675",
"@ c #C9D97D",
"# c #CADA7F",
"$ c #C5D778",
"% c #C0D471",
"& c #C2D574",
"* c #C8D97C",
"= c #C6D879",
"- c #C1D472",
"; c #D5E28F",
": c #D9E495",
"> c #CEDD84",
", c #C7D87A",
"< c #D4E18E",
"1 c #CFDE87",
"2 c #DEE79C",
"3 c #D3E08C",
"4 c #CDDC83",
"5 c #DAE596",
"6 c #D2DF8A",
"7 c #C4D676",
"8 c #C6D878",
"9 c #CFDD86",
"0 c #D5E18E",
"q c #D6E290",
"w c #D5E18F",
"e c #D6E28F",
"r c #D2E08B",
"t c #C2D573",
"y c #DEE89C",
"u c #DBE597",
"i c #C4D776",
"p c #C1D471",
"a c #BED26D",
"s c #C3D674",
"d c #C4D675",
"f c #CBDB80",
"g c #D2E08A",
"h c #CEDD85",
"j c #C4D777",
"k c #C1D572",
"l c #C9DA7E",
"z c #DEE79B",
"x c #D9E494",
"c c #CADA7E",
"v c #C5D777",
"b c #D1DF89",
"n c #CFDE86",
"m c #C8D97B",
"M c #BED36D",
"N c white",
/* pixels */
"                                        ",
"                                        ",
"                                        ",
"                                        ",
"                                        ",
"                                        ",
"                       .XXXXXXXXXX      ",
"                       XXooOXXOoOX      ",
"                     .X           XX    ",
"                     XX +@#$%&*#=-XX    ",
"                     Xo @;:>&,<:1+OX    ",
"                     Xo #:23*45267oX    ",
"                     XO 890qw;er#tXX    ",
"                     XX %t*<yu>ip XX    ",
"                       XOat9:;*XaX      ",
"                       XXO%=#*sXOX      ",
"                        XX      X.      ",
"                          XOooXX        ",
"                          XXXXX.        ",
"                                        ",
"                                        ",
"                                        ",
"                                        ",
"                                        ",
"      XXXXXXXXXXX                       ",
"      XXoOXXXoOXX                       ",
"    XX t7sp td+- XX                     ",
"    XXtfghjkl61= OX                     ",
"    Xo7gzxcvbz:# oX                     ",
"    XO+n:xbhwu;* oX                     ",
"    XX-$f6xue>ms XX                     ",
"    XXXO%f:2riXX X.                     ",
"      XMO$n6#paOX                       ",
"      XXX-+7t XX.                       ",
"        XXOoXX                          ",
"        XXXXXX                          ",
"                                        ",
"                                        ",
"                                        ",
"                                        "
};
