/* XPM */
static char *result[] = {
/* columns rows colors chars-per-pixel */
"40 40 201 2 ",
"   c #927649",
".  c #927749",
"X  c #92774A",
"o  c #93774A",
"O  c #93784A",
"+  c #93784B",
"@  c #957A49",
"#  c #967B49",
"$  c #94794B",
"%  c #957A4A",
"&  c #957A4B",
"*  c #967B4A",
"=  c #967B4B",
"-  c #977C49",
";  c #977C4A",
":  c #987D49",
">  c #9A7F49",
",  c #987D4A",
"<  c #997E4A",
"1  c #997E4B",
"2  c #997F4B",
"3  c #9A7F4C",
"4  c #9B8047",
"5  c #9C8147",
"6  c #9F8445",
"7  c #9B8048",
"8  c #9A804B",
"9  c #9C8148",
"0  c #9C8249",
"q  c #9D8349",
"w  c #9F8448",
"e  c #9E844A",
"r  c #9E844B",
"t  c #9B814C",
"y  c #9B814D",
"u  c #9C814E",
"i  c #9C824E",
"p  c #9F854C",
"a  c #9E844D",
"s  c #9E854D",
"d  c #9F854D",
"f  c #A08545",
"g  c #A08546",
"h  c #A08646",
"j  c #A18646",
"k  c #A18647",
"l  c #A28846",
"z  c #A68C44",
"x  c #A78C44",
"c  c #A78D45",
"v  c #A78D46",
"b  c #A88E46",
"n  c #A98F46",
"m  c #A88E47",
"M  c #A0864B",
"N  c #A0864C",
"B  c #A0864D",
"V  c #A0874D",
"C  c #A1874E",
"Z  c #A38948",
"A  c #A48A4A",
"S  c #A68D4B",
"D  c #A3894D",
"F  c #A38A4D",
"G  c #AD9343",
"H  c #AA9045",
"J  c #AC9244",
"K  c #AD9244",
"L  c #AA9048",
"P  c #AA914A",
"I  c #AC934B",
"U  c #AD944B",
"Y  c #A9904F",
"T  c #A9914F",
"R  c #AF964D",
"E  c #B09744",
"W  c #B09745",
"Q  c #B19844",
"!  c #B19845",
"~  c #B19847",
"^  c #B29946",
"/  c #B39946",
"(  c #B59C47",
")  c #B19849",
"_  c #B29948",
"`  c #B29A48",
"'  c #B59C49",
"]  c #B69E48",
"[  c #B79F4A",
"{  c #B0984F",
"}  c #B1994F",
"|  c #B59D4F",
" . c #B69E4E",
".. c #B79F4F",
"X. c #A18751",
"o. c #A38A51",
"O. c #A78E51",
"+. c #A68E53",
"@. c #AB9350",
"#. c #AB9251",
"$. c #AB9351",
"%. c #AF9750",
"&. c #AC9453",
"*. c #AB9355",
"=. c #AE9654",
"-. c #AF9754",
";. c #AF9755",
":. c #AD9557",
">. c #B19A51",
",. c #B29A51",
"<. c #B29B51",
"1. c #B39B51",
"2. c #B29B52",
"3. c #B09855",
"4. c #B19A58",
"5. c #B39C59",
"6. c #B49C59",
"7. c #B59E5B",
"8. c #B59F5B",
"9. c #B8A04A",
"0. c #B9A14A",
"q. c #B8A04B",
"w. c #B8A04C",
"e. c #B9A14C",
"r. c #BAA24C",
"t. c #BAA34C",
"y. c #BAA34D",
"u. c #BBA34D",
"i. c #B9A14E",
"p. c #BAA34F",
"a. c #BBA44E",
"s. c #BCA54F",
"d. c #B8A251",
"f. c #BCA551",
"g. c #BDA750",
"h. c #BCA651",
"j. c #BEA750",
"k. c #BCA652",
"l. c #BDA652",
"z. c #BDA752",
"x. c #BEA752",
"c. c #B8A154",
"v. c #BBA554",
"b. c #BBA555",
"n. c #BCA655",
"m. c #BEA851",
"M. c #BEA852",
"N. c #BEA853",
"B. c #BFA953",
"V. c #BEA854",
"C. c #BFA954",
"Z. c #B6A05B",
"A. c #BAA45B",
"S. c #BDA758",
"D. c #B8A15C",
"F. c #BDA75D",
"G. c #BDA75E",
"H. c #C0AB53",
"J. c #C0AA54",
"K. c #C1AB54",
"L. c #C1AC54",
"P. c #C2AC54",
"I. c #C4AE56",
"U. c #C0AB58",
"Y. c #C1AB58",
"T. c #C2AD5B",
"R. c #C5AF59",
"E. c #C2AD5D",
"W. c #C3AD5F",
"Q. c #C4AE5C",
"!. c #C5B05A",
"~. c #C5B05B",
"^. c #C6B15A",
"/. c #C6B15B",
"(. c #C7B25B",
"). c #C5B05D",
"_. c #C8B35C",
"`. c #C8B45C",
"'. c #C9B45D",
"]. c #CAB55C",
"[. c #C9B45F",
"{. c #C5B060",
"}. c #C5B063",
"|. c #C7B262",
" X c #C9B561",
".X c #C9B562",
"XX c #C9B563",
"oX c #CCB863",
"OX c #CEBA62",
"+X c #CEBA63",
"@X c #CFBB63",
"#X c #CCB865",
"$X c #CDB965",
"%X c #D1BD64",
"&X c #D1BD65",
"*X c #D1BE65",
"=X c #D1BE68",
"-X c #D2BF68",
";X c #D4C168",
":X c #D5C269",
">X c None",
/* pixels */
">X>X>X>X>X>X>X>X>X>X>X>X>X>X>X>X>X>X>X>X>X>X>X>X>X>X>X>X>X>X>X>X>X>X>X>X>X>X>X>X",
">X>X>X>X>X>X>X>X>X>X>X>X>X>X>X>X>X>X>X>X>X>X>X>X>X>X>X>X>X>X>X>X>X>X>X>X>X>X>X>X",
">X>X>X>X>X>X>X>X>X>X>X>X>X>X>X>X>X>X>X>X>X>X>X>X>X>X>X>X>X>X>X>X>X>X>X>X>X>X>X>X",
">X>X>X>X>X>X>X>X>X>X>X>X>X>X>X>X>X>X>X>X>X>X>X>X>X>X>X>X>X>X>X>X>X>X>X>X>X>X>X>X",
">X>X>X>X>X>X>X>X>X>X>X>X>X>X>X>X>X>X>X>X>X>X>X>X>X>X>X>X>X>X>X>X>X>X>X>X>X>X>X>X",
">X>X>X>X>X>X>X>X>X>X>X>X>X>X>X>X>X>X>X>X>X>X>X>X>X>X>X>X>X>X>X>X>X>X>X>X>X>X>X>X",
">X>X>X>X>X>X>X>X>X>X>X>X>X>X>X>X>X>X>X>X>X>X>X>X>X>X>X>X>X>X>X>X>X>X>X>X>X>X>X>X",
">X>X>X>X>X>X>X>X>X>X>X>X>X>X>X>X>X>X>X>X>X>X>X>X>X>X>X>X>X>X>X>X>X>X>X>X>X>X>X>X",
">X>X>X>X>X>X>X>X>X>X>X>X>X>X>X>X>X>X>X>X>X>X>X>X>X>X>X>X>X>X>X>X>X>X>X>X>X>X>X>X",
">X>X>X>X>X>X>X>X>X>X>X>X>X>X>X>X>X>X>X>X>X>X>X>X>X>X>X>X>X>X>X>X>X>X>X>X>X>X>X>X",
">X>X>X>X>X>X>X>X>X>X>X>X>X>X>X>X>X>X>X>X>X>X>X>X>X>X>X>X>X>X>X>X>X>X>X>X>X>X>X>X",
">X>X>X>X>X>X>X>X>X>X>X>X>X>X>X>X>X>X>X>X>X>X>X>X>X>X>X>X>X>X>X>X>X>X>X>X>X>X>X>X",
">X>X>X>X>X>X>X>X>X>X>X>X>X>X>X>X>X>X>X>X>X>X>X>X>X>X>X>X>X>X>X>X>X>X>X>X>X>X>X>X",
">X>X>X>X>X>X>X>X>X>X>X>X>X>X>X>X>X>X>X>X>X>X>X>X>X>X>X>X>X>X>X>X>X>X>X>X>X>X>X>X",
">X>X>X>X>X>X>X>X>X>X>X>X>X>X>X>X>X>X>X>X>X>X>X>X>X>X>X>X>X>X>X>X>X>X>X>X>X>X>X>X",
">X>X>X>X>X>X>X>X>X>X>X>X>X>X>X>X>X>X>X>X>X>X>X>X>X>X>X>X>X>X>X>X>X>X>X>X>X>X>X>X",
">X>X>X>X>X>X>X>X>X>X>X>X>X>X>X>X>X>X>X>X>X>X>X>X>X>X>X>X>X>X>X>X>X>X>X>X>X>X>X>X",
">X>X>X>X>X>X>X>X>X>X>X>X>X>X>X>X>X>X>X>X>X>X>X>X>X>X>X>X>X>X>X>X>X>X>X>X>X>X>X>X",
">X>X>X>X>X>X>X>X>X>X>X>X>X>X>X>X>X>X>X>X>X>X>X>X>X>X>X>X>X>X>X>X>X>X>X>X>X>X>X>X",
">X>X>X>X>X>X>X>X>X>X>X>X>X>X>X>X>X>X>X>X>X>X>X>X>X>X>X>X>X>X>X>X>X>X>X>X>X>X>X>X",
">X>X>X>X>X>X>X>X>X>XO o X .     . X o O O o X .     . X o O >X>X>X>X>X>X>X>X>X>X",
">X>X>X>X>X>X>X>X>X>X1 3 y i i i i y 3 2 2 3 y i i i i y 3 1 >X>X>X>X>X>X>X>X>X>X",
">X>X>X>X>X>X>X>X>X8 F T -.6.8.7.5.;.#.Y Y #.;.5.7.8.6.-.T F 8 >X>X>X>X>X>X>X>X>X",
">X>X>X>X>X>X>X>X= V %.b.Q..X#X#X.XT.v.d.d.v.T..X#X#X.XQ.b.%.V = >X>X>X>X>X>X>X>X",
">X>X>X>X>X>X>XX.+.3.S.~.).W.{.[.].I.j.a.a.j.I.].[.{.W.).~.S.3.+.X.>X>X>X>X>X>X>X",
">X>X>X>X>X>Xu :.G.|.oX XA.*.$.| u.0.] ( ( ] 0.u.| $.*.A. XoX|.G.:.u >X>X>X>X>X>X",
">X>X>X>X>X. i 4.XX;X:X$XD.o.M v J G K J J K G J v M o.D.$X:X;XXX4.i . >X>X>X>X>X",
">X>X>X>X>XX y -.).%X;X=X}.Z.&.A f 6 f g g f 6 f A &.Z.}.=X;X%X).-.y X >X>X>X>X>X",
">X>X>X>X>Xo 3 T n._.@X-X-X#XF.O.< # , , , , # < O.F.#X-X-X@X_.n.T 3 o >X>X>X>X>X",
">X>X>X>X>XO 1 S  .K.'.+X*X@XE.=.C a B B B B s C =.E.@X&XOX`.K. .S 1 O >X>X>X>X>X",
">X>X>X>X>X+ , Z ~ r.K.!.(./.U.c.<.>.,.,.,.,.>.2.c.Y.^.(.R.J.r.~ Z , + >X>X>X>X>X",
">X>X>X>X>X+ , h H _ i.l.x.z.z.N.N.N.N.N.N.N.z.k.h.l.z.B.N.p.` H h , + >X>X>X>X>X",
">X>X>X>X>X>X; 5 j m ) [ 9.[ y.m.L.P.L.P.P.H.g.t.9.[ q.s.M...P k 4 - >X>X>X>X>X>X",
">X>X>X>X>X>X>X* : w n W Q ! ' p.N.C.N.V.V.l.w./ E E ^ e.f.1.D , @ >X>X>X>X>X>X>X",
">X>X>X>X>X>X>X>X$ > l x x c L R ,.<.,.<.<.} I b z z b U { @.s $ >X>X>X>X>X>X>X>X",
">X>X>X>X>X>X>X>X>X: 7 9 9 9 q p V V V V V N e 0 9 9 0 r N d t >X>X>X>X>X>X>X>X>X",
">X>X>X>X>X>X>X>X>X>X% % % % % & & & & & & & & % % % % & & & >X>X>X>X>X>X>X>X>X>X",
">X>X>X>X>X>X>X>X>X>X>X>X>X>X>X>X>X>X>X>X>X>X>X>X>X>X>X>X>X>X>X>X>X>X>X>X>X>X>X>X",
">X>X>X>X>X>X>X>X>X>X>X>X>X>X>X>X>X>X>X>X>X>X>X>X>X>X>X>X>X>X>X>X>X>X>X>X>X>X>X>X",
">X>X>X>X>X>X>X>X>X>X>X>X>X>X>X>X>X>X>X>X>X>X>X>X>X>X>X>X>X>X>X>X>X>X>X>X>X>X>X>X"
};
