/* XPM */
static char *result[] = {
/* columns rows colors chars-per-pixel */
"20 20 139 2 ",
"   c #966961",
".  c #A57B6C",
"X  c #A67C6D",
"o  c #A67D6D",
"O  c #A67D6E",
"+  c #A77E6F",
"@  c #A57D70",
"#  c #AF815F",
"$  c #A78475",
"%  c #A88473",
"&  c #A88674",
"*  c #A98675",
"=  c #A98775",
"-  c #AC8677",
";  c #AB8974",
":  c #A7837B",
">  c #AE8E7E",
",  c #AF8F7E",
"<  c #B18B79",
"1  c #BB9670",
"2  c #BB9773",
"3  c #BC9871",
"4  c #BC9872",
"5  c #BB9579",
"6  c #B29288",
"7  c #BEA79F",
"8  c #BFA7A0",
"9  c #BFA8A0",
"0  c #BFA8A1",
"q  c #C5A680",
"w  c #C1A085",
"e  c #C1A185",
"r  c #C3A488",
"t  c #C9A98D",
"y  c #D0B98E",
"u  c #CDB398",
"i  c #CBB39F",
"p  c #CCB39D",
"a  c #CDB49E",
"s  c #C1A9A0",
"d  c #C0A9A1",
"f  c #C0AAA2",
"g  c #C3ADA5",
"h  c #C3AEA6",
"j  c #C3AFA6",
"k  c #C8B3A7",
"l  c #D4BFA7",
"z  c #D2C09D",
"x  c #DDC29D",
"c  c #D9C79C",
"v  c #DFC49E",
"b  c #D0C0B5",
"n  c #D0C1B6",
"m  c #D5C9BF",
"M  c #DCCDBB",
"N  c #DDCFBD",
"B  c #E0C6A0",
"V  c #E5CCA4",
"C  c #E6CDA4",
"Z  c #E7CDA4",
"A  c #E6CDA5",
"S  c #E7CDA5",
"D  c #E7CEA5",
"F  c #E8CEA5",
"G  c #E8CFA6",
"H  c #E8D0A7",
"J  c #E8D1A7",
"K  c #E9D3A9",
"L  c #E9D5AA",
"P  c #EAD7AC",
"I  c #E7E1B4",
"U  c #E9E0B3",
"Y  c #EDE0B3",
"T  c #EEE2B4",
"R  c #EBE6B5",
"E  c #EEE4B6",
"W  c #ECE7B7",
"Q  c #EFE6B7",
"!  c #EEE9B6",
"~  c #EEE7B8",
"^  c #F0E8B9",
"/  c #F1E9B9",
"(  c #F0EABA",
")  c #F2EBBA",
"_  c #F1EEBB",
"`  c #F0EEBC",
"'  c #F1EEBD",
"]  c #F2EFBF",
"[  c #F3EFBF",
"{  c #F1F0BE",
"}  c #F1F1BF",
"|  c #F2F0BF",
" . c #F2F1BF",
".. c #F3F1BF",
"X. c #F2F2BF",
"o. c #F3F2BF",
"O. c #D9CFC4",
"+. c #DFD7CC",
"@. c #E0D4C3",
"#. c #E1D6C5",
"$. c #E4DBCB",
"%. c #F3E5C2",
"&. c #F3E9C0",
"*. c #F3EBC2",
"=. c #F3EFC0",
"-. c #F3E8C5",
";. c #F2EFC4",
":. c #F3E8CB",
">. c #F3F2C0",
",. c #F3F3C0",
"<. c #F3F2C1",
"1. c #F3F3C1",
"2. c #F2F0C2",
"3. c #F3F1C2",
"4. c #F3F3C2",
"5. c #F3F2C3",
"6. c #F5F5C2",
"7. c #F3F3CB",
"8. c #E6E0D5",
"9. c #E6E1D5",
"0. c #E6E1D6",
"q. c #E6E2D6",
"w. c #E9E3D4",
"e. c #E9E4D4",
"r. c #EDEBDF",
"t. c #EDECDF",
"y. c #F3ECD3",
"u. c #F2EED4",
"i. c #F4F5D0",
"p. c #F5F6D1",
"a. c #F4F1D6",
"s. c #F3F3D9",
"d. c #F3F2DE",
"f. c #F2F3DF",
"g. c #F3F1E4",
"h. c #F3F4E5",
"j. c #F6F9EC",
"k. c #F7FAEC",
"l. c None",
/* pixels */
"l.l.l.l.l.l.l.l.l.l.l.l.l.l.l.l.l.l.l.l.",
"l.l.l.l.l.l.l.l.l.l.l.l.l.l.l.l.l.l.l.l.",
"l.l.l.l.l.l.l.l.l.l.l.l.l.l.l.l.l.l.l.l.",
"l.l.l.l.l.l.#.u 1 4 3 1 u #.l.l.l.l.l.l.",
"l.l.l.l.l.w.e y <.] 2.4.y w 9.l.l.l.l.l.",
"l.l.l.l.e.5 c ` =.-.d.7._ z : 8.l.l.l.l.",
"l.l.l.@.r c ! i.u.%.:.;.6.U t 6 O.l.l.l.",
"l.l.l.N # R p.f.g.y.*.[ ,.) v   m l.l.l.",
"l.l.$.l q W a.g.h.s.5.X.1./ B < k +.l.l.",
"l.l.i 2 ' >.&.y.s.>...>. .E G V + f l.l.",
"l.l.s ; { >.| 3.5...o.>.T H G S X d l.l.",
"l.l.0 * { >.o.o.....>.1.Y Z G A O d l.l.",
"l.l.9 = { >.>.>. .>.>.Q P D G A O d l.l.",
"l.l.7 & >.>. . .>. .^ L Z D G G . 9 l.l.",
"l.l.g , I | >.>...( K F G G S x - j l.l.",
"l.l.r.n $ I >.} ~ J A C A G x @ b r.l.l.",
"l.l.l.0.b > & = % X o O O . - b q.l.l.l.",
"l.l.l.l.t.h 8 9 0 d d d d 0 j t.l.l.l.l.",
"l.l.l.l.l.l.l.l.l.l.l.l.l.l.l.l.l.l.l.l.",
"l.l.l.l.l.l.l.l.l.l.l.l.l.l.l.l.l.l.l.l."
};
