/* XPM */
static char *result[] = {
/* columns rows colors chars-per-pixel */
"30 30 129 2 ",
"   c #895956",
".  c #875A5F",
"X  c #8B5D5B",
"o  c #925E5D",
"O  c #8D625B",
"+  c #93645F",
"@  c #93685E",
"#  c #996C5F",
"$  c #9B725F",
"%  c #A37F5F",
"&  c #865A60",
"*  c #8E6460",
"=  c #976161",
"-  c #9F6667",
";  c #956A62",
":  c #996B64",
">  c #926A6A",
",  c #9B7262",
"<  c #9D756A",
"1  c #9F786C",
"2  c #947472",
"3  c #997C7A",
"4  c #A46B6C",
"5  c #A77D61",
"6  c #A0756A",
"7  c #A27B6F",
"8  c #AE7374",
"9  c #A37E70",
"0  c #B5777A",
"q  c #A48061",
"w  c #AC8064",
"e  c #AC8B61",
"r  c #AD856F",
"t  c #B98E66",
"y  c #B59764",
"u  c #B79864",
"i  c #BD9B65",
"p  c #A48071",
"a  c #AA8574",
"s  c #AB8A77",
"d  c #AC8B79",
"f  c #B38E72",
"g  c #B49175",
"h  c #B29A76",
"j  c #B4917D",
"k  c #C19A68",
"l  c #C19D77",
"z  c #C5A26B",
"x  c #C8A369",
"c  c #CAB267",
"v  c #CEB967",
"b  c #CEB568",
"n  c #CEB968",
"m  c #D2BC69",
"M  c #CBAB7A",
"N  c #C5B27A",
"B  c #D5C57F",
"V  c #DBC67B",
"C  c #DCCB7B",
"Z  c #BE7D81",
"A  c #AC938A",
"S  c #B49481",
"D  c #BB9685",
"F  c #B59882",
"G  c #B99C85",
"H  c #B19D8F",
"J  c #B19D91",
"K  c #BAA087",
"L  c #BCA28A",
"P  c #BAA795",
"I  c #BDA994",
"U  c #C19E85",
"Y  c #C69C8E",
"T  c #C2A087",
"R  c #D2B284",
"E  c #D0B08B",
"W  c #D8B88B",
"Q  c #CEA194",
"!  c #D5A49A",
"~  c #C5B295",
"^  c #CBB594",
"/  c #CAB798",
"(  c #CDBB9A",
")  c #D5B996",
"_  c #DDBF94",
"`  c #D8BE9B",
"'  c #CABCA1",
"]  c #DDD081",
"[  c #DFD388",
"{  c #DDC396",
"}  c #DBC29C",
"|  c #DECC9B",
" . c #E0D485",
".. c #E4CC96",
"X. c #E2CC9F",
"o. c #E2D795",
"O. c #E7DE96",
"+. c #E5DD99",
"@. c #CEC1A2",
"#. c #D3C4A0",
"$. c #DACDA7",
"%. c #D5CDAB",
"&. c #D8CFAC",
"*. c #DCD4A6",
"=. c #DCD2AC",
"-. c #E3D2A2",
";. c #E7DFA0",
":. c #E4D5AC",
">. c #EAD6AB",
",. c #E2DAAF",
"<. c #ECDAAE",
"1. c #E5D7B0",
"2. c #E8D6B2",
"3. c #E4DCB2",
"4. c #EAD9B3",
"5. c #EAE4AB",
"6. c #EDE9AD",
"7. c #E6E0B3",
"8. c #EBE4B6",
"9. c #EEEBB6",
"0. c #E9E6B9",
"q. c #EEEABB",
"w. c #F0EDB2",
"e. c #F0E7B9",
"r. c #F1EDBC",
"t. c #F3F1BF",
"y. c #F4F3C1",
"u. c #F9FBC5",
"i. c None",
/* pixels */
"i.i.i.i.i.i.i.i.i.i.i.i.i.i.i.i.i.i.i.i.i.i.i.i.i.i.i.i.i.i.",
"i.i.i.i.i.i.i.i.i.i.i.i.i.i.i.i.i.i.i.i.i.i.i.i.i.i.i.i.i.i.",
"i.i.i.i.i.i.i.i.i.i.i.i.i.i.i.O X O O O i.i.i.i.i.i.i.i.i.i.",
"i.i.i.i.i.i.i.i.i.i.i.i.i.i.+ + + + + = + i.i.i.i.i.i.i.i.i.",
"i.i.i.i.i.i.i.i.i.i.i.i.i.= 4 4 4 4 4 4 - + i.i.i.i.i.i.i.i.",
"i.i.i.i.i.i.i.i.i.i.i.i.+ 4 0 0 Z Z Z Z 8 ; @ i.i.i.i.i.i.i.",
"i.i.i.i.i.i.i.i.i.i.i.7 d D Q ! ! ! ! ! Y j s 1 i.i.i.i.i.i.",
"i.i.i.i.i.i.i.i.i.i.; G #.1.4.4.4.2.2.2.1.=./ a X i.i.i.i.i.",
"i.i.i.i.i.i.i.i.i.< a / 0.q.3.3.0.t.y.y.q.3.@.A 7 < i.i.i.i.",
"i.i.i.i.i.i.i.i.1 G ( ,.q.&.J H %.t.u.y.%.J A P ~ j ; i.i.i.",
"i.i.i.i.i.i.i.X 7 / q.u.r.' 3 3 ' t.u.9.I 3 p @.,.L ;   i.i.",
"i.i.i.i.i.i.i.  1 ( t.u.y.&.P P =.9.6.o.N e h &.8.L ;   i.i.",
"i.i.i.i.i.i.i.O p ( q.y.y.0.0.0.q.r.+.C n n B 5.7.K ;   i.i.",
"i.i.i.i.i.i.< d L $.t.y.y.y.y.y.y.q.;.[ ]  .O.6.7.K ;   i.i.",
"i.i.i.i.i.O a @.,.q.t.y.t.y.y.y.y.t.9.6.6.6.9.t.7.K ;   i.i.",
"i.i.i.i., p L =.y.y.y.t.y.y.y.y.t.y.t.y.y.y.y.u.7.K ;   i.i.",
"i.i.i.; j / =.q.y.y.y.y.y.y.y.y.y.y.t.y.y.y.y.y.7.L :   i.i.",
"i.i.  ; G 3.t.t.y.y.y.y.t.q.9.9.q.t.y.t.y.y.y.y.,.D ;   i.i.",
"i.i.  ; G >.t.y.y.y.y.y.y.8.| | 5.y.y.y.y.y.y.r.:.F :   i.i.",
"i.i.X ; j } <.e.r.t.t.t.q.-.R R -.y.y.y.t.t.e.4.} j ;   i.i.",
"i.i.i.; a U E | -.-.X.-.X.{ R W -.8.e.8.e.e.>.) U a ; i.i.i.",
"i.i.i.i.: 6 r l M M M M M R _ X.>.>.>.>.<.>.} j < : i.i.i.i.",
"i.i.i.i.i.X # 5 t k x x x M E ) _ ........) L 7 O i.i.i.i.i.",
"i.i.i.i.i.i.O : 5 i c m b z f g M V V V M f 7 > i.i.i.i.i.i.",
"i.i.i.i.i.i.i.& , y c v c u , , u c v c u , X i.i.i.i.i.i.i.",
"i.i.i.i.i.i.i.i.; q e e e q @ @ % e e e q O i.i.i.i.i.i.i.i.",
"i.i.i.i.i.i.i.i.i.* @ @ @ * i.i.* + @ @ * i.i.i.i.i.i.i.i.i.",
"i.i.i.i.i.i.i.i.i.i.. X . i.i.i.i.. X X i.i.i.i.i.i.i.i.i.i.",
"i.i.i.i.i.i.i.i.i.i.i.i.i.i.i.i.i.i.i.i.i.i.i.i.i.i.i.i.i.i.",
"i.i.i.i.i.i.i.i.i.i.i.i.i.i.i.i.i.i.i.i.i.i.i.i.i.i.i.i.i.i."
};
