/* XPM */
static char *result[] = {
/* columns rows colors chars-per-pixel */
"40 40 63 1 ",
"  c #5B7577",
". c #5D7778",
"X c #5F7A79",
"o c #7F6765",
"O c #647B77",
"+ c #617D79",
"@ c #875C5F",
"# c #94665D",
"$ c #9A6B5D",
"% c #9B775E",
"& c #9D785E",
"* c #AB7857",
"= c #AD7C5A",
"- c #835A62",
"; c #8D6362",
": c #8C6961",
"> c #9D7061",
", c #A07360",
"< c #A67A63",
"1 c #A47D6A",
"2 c #64837A",
"3 c #69867D",
"4 c #67897A",
"5 c #6B8C7C",
"6 c #708E7F",
"7 c #6D957B",
"8 c #70977C",
"9 c #729A7E",
"0 c #AF805D",
"q c #B1815D",
"w c #B28561",
"e c #B68962",
"r c #BA8E64",
"t c #B1886B",
"y c #BE946B",
"u c #C1966B",
"i c #C49A6B",
"p c #708E80",
"a c #759481",
"s c #779E80",
"d c #7A9D82",
"f c #7DA382",
"g c #83A586",
"h c #85AA86",
"j c #88AE87",
"k c #8AAC89",
"l c #8DB28A",
"z c #92B68C",
"x c #96BA8E",
"c c #99BD8F",
"v c #9BBF91",
"b c #9EC291",
"n c #A1C693",
"m c #A4C994",
"M c #A9CE96",
"N c #ABD097",
"B c #AED499",
"V c #B1D699",
"C c #B6D999",
"Z c #BCDC99",
"A c #C0DF99",
"S c #C2E09A",
"D c None",
/* pixels */
"DDDDDDDDDDDDDDDDDDDDDDDDDDDDDDDDDDDDDDDD",
"DDDDDDDDDDDDDDD .   .....DDDDDDDDDDDDDDD",
"DDDDDDDDDDDDD 6gkkkkkkggd6DDDDDDDDDDDDDD",
"DDDDDDDDDDDDpakMVCZCCVCMmk3DDDDDDDDDDDDD",
"DDDDDDDDDD3pzNBBVASSCVSSVmk33DDDDDDDDDDD",
"DDDDDDDDOpvMBBBBVZSSCVZACBmxx3DDDDDDDDDD",
"DDDDDDD.9cBZAZCVSSSCVBVVBVBMMx6DDDDDDDDD",
"DDDDDDXdlnVSSSSZSSCBBVCZZVBBMbkaDDDDDDDD",
"DDDDDDXkMMBCCZSSCVBBVVSASZCZCccd DDDDDDD",
"DDDDDD6vVBBBBCZCBBBVBVZCZAAAAmbkpDDDDDDD",
"DDDDD+kMBBBBBBBBVBBBBBBBBVAZZVBmgXDDDDDD",
"DDDDD+zMBBBBBBNBBBBBBBBBBBBVBBBmgODDDDDD",
"DDDDD+zccnBBBmcnBBBBBBBvccnVMbcvh+DDDDDD",
"DDDDD2kxxbBBBbzbBBBVBVNcczvVVccg3DDDDDDD",
"DDDDD+zvxcmnmcxcmnnMBMmnmnnnncca DDDDDDD",
"DDDDD+gzxxxbbbcxxxxnMncmMMnxxxcgpDDDDDDD",
"DDDDDDOgxxcNNNnxxcxxxxxxxcxxxxxcgXDDDDDD",
"DDDDDDXgbxxcccxxxxxxxxxxxxxxcxxcgXDDDDDD",
"DDDDD+4jxxxxxxxxxxxxxxxxxxxcxxcj7ODDDDDD",
"DDDDDX7ffjzhflczffgkxxcxxjffffg94XDDDDDD",
"DDDDD+777fz77jcj777jccccbf7777775XDDDDDD",
"DDDDDX7779j77hlj999jxxlllh9999774XDDDDDD",
"DDDDD+777999987fxxzzzj887hxzz974XDDDDDDD",
"DDDDDDX779zzz9779999997777999774XDDDDDDD",
"DDDDDDX579f9f9777777777877777784XDDDDDDD",
"DDDDDDD2777777778777878787778842DDDDDDDD",
"DDDDDDDD24577777887787778774742DDDDDDDDD",
"DDDDDDDDDX+7757777755757774..XDDDDDDDDDD",
"DDDDDDDDDDDXXXO+.++O+OOO+XXDDDDDDDDDDDDD",
"DDDDDDDDDDDDDDo#%%&&&&&:DDDDDDDDDDDDDDDD",
"DDDDDDDDDDDDDDD$q****=q#DDDDDDDDDDDDDDDD",
"DDDDDDDDDDDDDDD%qq00=qw#DDDDDDDDDDDDDDDD",
"DDDDDDDDDDDDDD-$ereerre#DDDDDDDDDDDDDDDD",
"DDDDDDDDDDDDDD;,riryiiy>DDDDDDDDDDDDDDDD",
"DDDDDDDDDDDDD-<iiiuiiiii>DDDDDDDDDDDDDDD",
"DDDDDDDDDDDDDDtiiiiiiiii1DDDDDDDDDDDDDDD",
"DDDDDDDDDDDDDDDDDDiiiDDDDDDDDDDDDDDDDDDD",
"DDDDDDDDDDDDDDDDDDDyDDDDDDDDDDDDDDDDDDDD",
"DDDDDDDDDDDDDDDDDDDDDDDDDDDDDDDDDDDDDDDD",
"DDDDDDDDDDDDDDDDDDDDDDDDDDDDDDDDDDDDDDDD"
};
